rospo-newyear-dark/symbolic/status/network-cellular-no-route-symbolic.svg

<svg height="16" width="16" xmlns="http://www.w3.org/2000/svg"><path d="m15 1-14 14h14zm-3 6c1.1 0 2 .9 2 2s-.9 2-2 2v1h-1v-2h1c .55 0 1-.45 1-1s-.45-1-1-1-1 .45-1 1h-1c0-1.1.9-2 2-2zm-1 6h1v1h-1z" fill="#d3dae3"/></svg>

<svg xmlns="http://www.w3.org/2000/svg" width="16" height="16" version="1.1">
 <path style="fill:#d3dae3" d="M 15,1 1,15 H 15 Z M 12,7 C 13.1,7 14,7.9 14,9 14,10.1 13.1,11 12,11 V 12 H 11 V 10 H 12 C 12.55,10 13,9.55 13,9 13,8.45 12.55,8 12,8 11.45,8 11,8.45 11,9 H 10 C 10,7.9 10.9,7 12,7 Z M 11,13 H 12 V 14 H 11 Z"/>
</svg>
